glass/images/examples-back1.svg

<svg width="1920" height="1038" viewBox="0 0 1920 1038" fill="none" xmlns="http://www.w3.org/2000/svg"><path d="M196.482 413.088l-738.843 624.542h897.876l732.215-624.542H196.482z" fill="#F7F7F7"/><path d="M225.659 489.329l-97.638 82.532h47.741l96.762-82.533-46.865.001z" fill="#fff"/><path d="M189.232 254.495l-97.638 82.532h47.741l96.762-82.533-46.865.001z" fill="#F2F2F2"/><path stroke="#0047FF" stroke-opacity=".15" d="M1912.78 488.964l364.78-310.068M1848.32 488.964l364.78-310.068M1880.55 488.964l364.78-310.068M1816.09 488.964l364.78-310.068M1896.67 488.964l364.78-310.068M1832.21 488.964l364.78-310.068M1864.44 488.964l364.78-310.068M1783.86 488.964l364.79-310.068M1799.98 488.964l364.78-310.068M1751.64 488.964l364.78-310.068M1767.75 488.964l364.78-310.068M1735.52 488.964l364.78-310.068M1741.38 799.016l364.78-310.068M1709.15 799.016l364.78-310.068M1725.26 799.016l364.78-310.068M1676.92 799.016l364.78-310.068M1693.03 799.016l364.78-310.068M1644.69 799.016l364.78-310.068M1660.8 799.016l364.78-310.068M1628.57 799.016l364.79-310.068M1612.46 799.016l364.78-310.068M1580.23 799.016l364.78-310.068M1596.35 799.016l364.78-310.068M1548 799.016l364.78-310.068M1564.12 799.016l364.78-310.068M1483.54 799.016l364.78-310.068M1515.77 799.016l364.78-310.068M1451.31 799.016l364.79-310.068M1531.89 799.016l364.78-310.068M1467.43 799.016l364.78-310.068M1499.66 799.016l364.78-310.068M1419.09 799.016l364.78-310.068M1435.2 799.016l364.78-310.068M1386.86 799.016l364.78-310.068M1402.97 799.016l364.78-310.068M1370.74 799.016l364.78-310.068"/><g opacity=".5" stroke="#D4D6D9"><path d="M169.373 310.774L534.155.707M137.144 310.774L501.925.707M153.259 310.774L518.041.707M104.915 310.774L469.697.707M121.03 310.774L485.811.707M72.686 310.774L437.467.707M88.801 310.774L453.583.707M56.572 310.774L421.353.707M40.457 310.774L405.239.707M8.229 310.774L373.01.707M24.343 310.774L389.125.707M-24.001 310.774L340.781.707M-7.886 310.774L356.895.707M-88.459 310.774L276.323.707M-56.23 310.774L308.551.707M-120.688 310.774L244.093.707M-40.116 310.774L324.666.707M-104.573 310.774L260.209.707M-72.344 310.774L292.437.707M-152.917 310.774L211.865.707M-136.802 310.774L227.979.707M-185.146 310.774L179.635.707M-169.031 310.774L195.751.707M-201.26 310.774L163.521.707"/></g></svg>

<svg width="1920" height="1038" viewBox="0 0 1920 1038" fill="none" xmlns="http://www.w3.org/2000/svg">
<path d="M196.482 413.088L-542.361 1037.63L355.515 1037.63L1087.73 413.088L196.482 413.088Z" fill="#F7F7F7"/>
<path d="M225.659 489.329L128.021 571.861L175.762 571.861L272.524 489.328L225.659 489.329Z" fill="white"/>
<path d="M189.232 254.495L91.5938 337.027L139.335 337.027L236.097 254.494L189.232 254.495Z" fill="#F2F2F2"/>
<line x1="1912.78" y1="488.964" x2="2277.56" y2="178.896" stroke="#0047FF" stroke-opacity="0.15"/>
<line x1="1848.32" y1="488.964" x2="2213.1" y2="178.896" stroke="#0047FF" stroke-opacity="0.15"/>
<line x1="1880.55" y1="488.964" x2="2245.33" y2="178.896" stroke="#0047FF" stroke-opacity="0.15"/>
<line x1="1816.09" y1="488.964" x2="2180.87" y2="178.896" stroke="#0047FF" stroke-opacity="0.15"/>
<line x1="1896.67" y1="488.964" x2="2261.45" y2="178.896" stroke="#0047FF" stroke-opacity="0.15"/>
<line x1="1832.21" y1="488.964" x2="2196.99" y2="178.896" stroke="#0047FF" stroke-opacity="0.15"/>
<line x1="1864.44" y1="488.964" x2="2229.22" y2="178.896" stroke="#0047FF" stroke-opacity="0.15"/>
<line x1="1783.86" y1="488.964" x2="2148.65" y2="178.896" stroke="#0047FF" stroke-opacity="0.15"/>
<line x1="1799.98" y1="488.964" x2="2164.76" y2="178.896" stroke="#0047FF" stroke-opacity="0.15"/>
<line x1="1751.64" y1="488.964" x2="2116.42" y2="178.896" stroke="#0047FF" stroke-opacity="0.15"/>
<line x1="1767.75" y1="488.964" x2="2132.53" y2="178.896" stroke="#0047FF" stroke-opacity="0.15"/>
<line x1="1735.52" y1="488.964" x2="2100.3" y2="178.896" stroke="#0047FF" stroke-opacity="0.15"/>
<line x1="1741.38" y1="799.016" x2="2106.16" y2="488.948" stroke="#0047FF" stroke-opacity="0.15"/>
<line x1="1709.15" y1="799.016" x2="2073.93" y2="488.948" stroke="#0047FF" stroke-opacity="0.15"/>
<line x1="1725.26" y1="799.016" x2="2090.04" y2="488.948" stroke="#0047FF" stroke-opacity="0.15"/>
<line x1="1676.92" y1="799.016" x2="2041.7" y2="488.948" stroke="#0047FF" stroke-opacity="0.15"/>
<line x1="1693.03" y1="799.016" x2="2057.81" y2="488.948" stroke="#0047FF" stroke-opacity="0.15"/>
<line x1="1644.69" y1="799.016" x2="2009.47" y2="488.948" stroke="#0047FF" stroke-opacity="0.15"/>
<line x1="1660.8" y1="799.016" x2="2025.58" y2="488.948" stroke="#0047FF" stroke-opacity="0.15"/>
<line x1="1628.57" y1="799.016" x2="1993.36" y2="488.948" stroke="#0047FF" stroke-opacity="0.15"/>
<line x1="1612.46" y1="799.016" x2="1977.24" y2="488.948" stroke="#0047FF" stroke-opacity="0.15"/>
<line x1="1580.23" y1="799.016" x2="1945.01" y2="488.948" stroke="#0047FF" stroke-opacity="0.15"/>
<line x1="1596.35" y1="799.016" x2="1961.13" y2="488.948" stroke="#0047FF" stroke-opacity="0.15"/>
<line x1="1548" y1="799.016" x2="1912.78" y2="488.948" stroke="#0047FF" stroke-opacity="0.15"/>
<line x1="1564.12" y1="799.016" x2="1928.9" y2="488.948" stroke="#0047FF" stroke-opacity="0.15"/>
<line x1="1483.54" y1="799.016" x2="1848.32" y2="488.948" stroke="#0047FF" stroke-opacity="0.15"/>
<line x1="1515.77" y1="799.016" x2="1880.55" y2="488.948" stroke="#0047FF" stroke-opacity="0.15"/>
<line x1="1451.31" y1="799.016" x2="1816.1" y2="488.948" stroke="#0047FF" stroke-opacity="0.15"/>
<line x1="1531.89" y1="799.016" x2="1896.67" y2="488.948" stroke="#0047FF" stroke-opacity="0.15"/>
<line x1="1467.43" y1="799.016" x2="1832.21" y2="488.948" stroke="#0047FF" stroke-opacity="0.15"/>
<line x1="1499.66" y1="799.016" x2="1864.44" y2="488.948" stroke="#0047FF" stroke-opacity="0.15"/>
<line x1="1419.09" y1="799.016" x2="1783.87" y2="488.948" stroke="#0047FF" stroke-opacity="0.15"/>
<line x1="1435.2" y1="799.016" x2="1799.98" y2="488.948" stroke="#0047FF" stroke-opacity="0.15"/>
<line x1="1386.86" y1="799.016" x2="1751.64" y2="488.948" stroke="#0047FF" stroke-opacity="0.15"/>
<line x1="1402.97" y1="799.016" x2="1767.75" y2="488.948" stroke="#0047FF" stroke-opacity="0.15"/>
<line x1="1370.74" y1="799.016" x2="1735.52" y2="488.948" stroke="#0047FF" stroke-opacity="0.15"/>
<g opacity="0.5">
<line x1="169.373" y1="310.774" x2="534.155" y2="0.706618" stroke="#D4D6D9"/>
<line x1="137.144" y1="310.774" x2="501.925" y2="0.706618" stroke="#D4D6D9"/>
<line x1="153.259" y1="310.774" x2="518.041" y2="0.706618" stroke="#D4D6D9"/>
<line x1="104.915" y1="310.774" x2="469.697" y2="0.706618" stroke="#D4D6D9"/>
<line x1="121.03" y1="310.774" x2="485.811" y2="0.706618" stroke="#D4D6D9"/>
<line x1="72.6859" y1="310.774" x2="437.467" y2="0.706618" stroke="#D4D6D9"/>
<line x1="88.8012" y1="310.774" x2="453.583" y2="0.706618" stroke="#D4D6D9"/>
<line x1="56.5717" y1="310.774" x2="421.353" y2="0.706618" stroke="#D4D6D9"/>
<line x1="40.4574" y1="310.774" x2="405.239" y2="0.706618" stroke="#D4D6D9"/>
<line x1="8.22891" y1="310.774" x2="373.01" y2="0.706618" stroke="#D4D6D9"/>
<line x1="24.3432" y1="310.774" x2="389.125" y2="0.706618" stroke="#D4D6D9"/>
<line x1="-24.0006" y1="310.774" x2="340.781" y2="0.706618" stroke="#D4D6D9"/>
<line x1="-7.88633" y1="310.774" x2="356.895" y2="0.706618" stroke="#D4D6D9"/>
<line x1="-88.4586" y1="310.774" x2="276.323" y2="0.706618" stroke="#D4D6D9"/>
<line x1="-56.2301" y1="310.774" x2="308.551" y2="0.706618" stroke="#D4D6D9"/>
<line x1="-120.688" y1="310.774" x2="244.093" y2="0.706618" stroke="#D4D6D9"/>
<line x1="-40.1158" y1="310.774" x2="324.666" y2="0.706618" stroke="#D4D6D9"/>
<line x1="-104.573" y1="310.774" x2="260.209" y2="0.706618" stroke="#D4D6D9"/>
<line x1="-72.3443" y1="310.774" x2="292.437" y2="0.706618" stroke="#D4D6D9"/>
<line x1="-152.917" y1="310.774" x2="211.865" y2="0.706618" stroke="#D4D6D9"/>
<line x1="-136.802" y1="310.774" x2="227.979" y2="0.706618" stroke="#D4D6D9"/>
<line x1="-185.146" y1="310.774" x2="179.635" y2="0.706618" stroke="#D4D6D9"/>
<line x1="-169.031" y1="310.774" x2="195.751" y2="0.706618" stroke="#D4D6D9"/>
<line x1="-201.26" y1="310.774" x2="163.521" y2="0.706618" stroke="#D4D6D9"/>
</g>
</svg>
